X:1
T:2
T:Jurassic Park 
T:Arranged by Nicholas.C.S
%%score 1 2 3 4
L:1/8
Q:1/4=85
M:4/4
K:F
V:1 treble nm="Violin" snm="Vln."
V:2 treble nm="Violin" snm="Vln."
V:3 alto nm="Viola" snm="Vla."
V:4 bass nm="Violoncello" snm="Vc."
V:1
 B,4 _E4 | _C4 B4- | B8 |[M:3/4] z6 |[M:4/4] B,4 _E4 | _C4 B4- | B8 |[M:3/4] z6 |[M:4/4] B4 _e4 | %9
 _c4 b4- | b8 | b8 | z2 BA B4 | c4- c2 B2 | c8- | c4 B2 A2 | B8- | B8 | z8 | z8 | %20
[Q:1/4=100] B6 BA | B6 BA | B3 c c3 _e | _e6 dB | c3 A F2 dB | c6 fB | _e3 d d3 c | c8- | c6 BA | %29
 B6 BA | B6 BA | B3 c c3 _e | _e6 dB | c3 A F2 dB | c6 fB | _e3 d d3 c | c8- | c6 ba | %38
 b2 f2 _e2 ba | b2 f2 _e2 ba | a b3 f2 B2 | _a6 b=a | b2 f2 _e2 ba | b2 f2 _e2 ba | b8- | b6 ba | %46
 (b8 | a8) | b8- | b8 | b8 ||[Q:1/4=175] z8 | z8 | z8 | z8 | z2!f! .B2 f4 | .c2 g4 ga | %57
 !>!b3 !>!b a2 f2 | g8 | z2 b2 a2 f2 | ^f3 d ga b2 | B6 cd | d3 e/d/ ^c4 | z2 .B2 f4 | .c2 g4 ga | %65
 !>!b3 !>!b a2 f2 | g8 | z2 b2 a2 f2 | ^f3 d ga b2 | d2 Ag g2 da | a8 | z2 B2 c2 BA | B2 A2 G4 | %73
 z2 G2 c2 cB | (B4 A4) | z2 A2 d2 Ag | g2 ^f2 e4 | z2 a2 a2 Ag | ^f4 e4 | z2 d2 d2 Dc | =B4 A4 | %81
!p! F8 | F8 | _E8 | _E8 | z2!f! c2 f2 cb | b2 a2 g4 | z2 c'2 c'2 cb | a4 g2 fg | a2 z2 z4 | z8 | %91
 z8 | z8 | z2!f! .B2 f4 | .c2 g4 ga | b3 b a2 f2 | g8 | z2 b2 a2 f2 | ^f3 d ga b2 | B6 _eg | a8 | %101
 z8 | z8 | B3 B _A2 F2 | ^F8 | z8 | z8 | ^c8 | ^c _e6 e | _e (^f3 f4) | g8 | z2 _e2 f2 ed | %112
 _e2 d2 c4 | z2 _e2 f2 ed | _e2 B2 c4 | z8 | z8 | z8 | z8 | z2 f2 e2 c2 | ^c3 A de f2 | z8 | %122
 z!f! _dcB _A^f=f_e | z cfc c2 f2 | z cfc f2 z2 | z c=BA Bcde | fede !>!f!>!g!>!a!>!=b | c'8- | %128
 c'8- | c'8 | c'8 | z2!f! .c'2 z4 | z4 z2 (c/d/)e/f/ |!mf! g8 | f8 | z8 |!f! _e8 | d6 c2 | _a8- | %139
 a8 | b2 g6- | g6 _a2 | f8 |!ff! b4 c'4- | c'8- | c'8 | z2 .c'2 (3.c'2 .c'2 .c'2 | .c'2 z2 z4 | %148
 z8 | z8 | z8 |] %151
V:2
 z8 | z8 | z8 |[M:3/4] z6 |[M:4/4] z8 | z8 | z8 |[M:3/4] z6 |[M:4/4] z8 | z8 | a8 | (d4 _e4) | %12
 z2 (_E2 F4) | _E4- E2 F2 | (_G4 _A4-) | A8 | z8 | z8 | z8 | z8 | F6 F2 | G6 G2 | (F4 A4) | B6 B2 | %24
 A4 A2 F2 | A6 G2 | B3 B B3 A | (A4 c4) | B4 A4 | F6 F2 | G6 G2 | (F4 A4) | B6 B2 | A4 A2 F2 | %34
 A6 G2 | B3 B B3 B | (B8 | A8) | (d4 B4) | (d4 B4) | d6 d2 | B6 B2 | (d4 c4) | (d4 c4) | B4 c4 | %45
 f4 b2 ba | _e2 f=e f4- | f2 fe f4 | d8- | d8 | b8 ||!mf! !>!B,6 .B,.B, | !>!B,6 .B,2 | %53
 !>!B,6 .B,.B, | !>!B,6 .B,2 | !>!B,6 .B,.B, | !>!B,6 .B,2 | !>!G3 !>!G F2 D2 | G8 | B,4 A,4 | %60
 A,4 B,4 | G,6 G,2 | A,8 | !>!B,6 .B,.B, | !>!B,6 .B,2 | !>!G3 !>!G F2 D2 | G8 | B,4 A,4 | %68
 A,4 G,4 | B2 A_e e2 d^f | ^f8 |!p! B2 B4 B2 | f2 f4 f2 | f2 f4 f2 | f4 f4 | e2 e4 e2 | e2 e4 e2 | %77
 e2 e4 e2 | e2 e2 ee e2 | =B2 B4 B2 | G4 G4 | z2!mf! _d2 _e2 dc | _d2 c2 B4 | z2 B2 _e2 _E_d | %84
 _d4 c4 |!p! F8 | F8 | z8 | z4 z2 de | ^f2 z2!mp! G3 G | z!mf! d_d=B Ag^fe | dAdG A2 z2 | %92
 de^fg a=b a2 | !>!B,6 .B,.B, | !>!B,6 .B,2 | G3 G F2 D2 | G8 | B,4 A,4 | A,4 B,4 | G6 C_E | %100
 D4 ^C4 | z2 ._D2 _A4 | ._E2 B4 Bc | _d3 d c2 _A2 | B8 | z2 _d2 c2 _A2 | A3 F Bc _d2 | A8 | %108
 A =B6 B | =B d3- d4 | c8 | g8- | g6 b2 | b6 b2 | c'8 | z2 .c2 g4 | .d2 a4 a=b | c'3 c' =b2 g2 | %118
 a8 | z8 | z8 | z ^f=f_e _d2 _A2 | z _dcB z4 | z8 | z8 | z8 | z4!mf! !>!d!>!e!>!f!>!g | e8- | e8- | %129
 e8 | f8 | z2!f! .g2 z4 | z8 |!mf! g4 =b4 | c'8 | z8 | B8 | B6 _A2 | f8- | f8 | f2 _d6- | d6 _d2 | %142
 _d8 |!ff! g4 g4- | g8- | g8 | z2 .g2 (3.g2 .g2 .g2 | .g2 z2 z4 | z8 | z8 | z8 |] %151
V:3
 z8 | z8 | z8 |[M:3/4] z6 |[M:4/4] z8 | z8 | z8 |[M:3/4] z6 |[M:4/4] z8 | z4 (D4 | C8) | z8 | z8 | %13
 z8 | z8 | z8 | B,2 F,2 D2 C2 | F2 B2 F,2 _E2 | F,2 D_E F2 F,2 | _E,2 B,2 G,2 C,2 | F,6 F,2 | %21
 _E,6 E,2 | D,3 _E, E,3 F, | F,6 _E,2 | F,4 F,2 D,2 | F,6 G,2 | G,3 G, G,3 F, | F,8- | F,8 | %29
 F,6 F,2 | _E,6 E,2 | D,3 _E, E,3 F, | F,6 _E,2 | F,4 F,2 D,2 | F,6 G,2 | G,3 G, G,3 F, | F,8- | %37
 F,8 | (F,4 G,4) | (F,4 G,4) | F,6 F,2 | _E,6 F,2 | (F,4 ^G,4) | (F,4 ^G,4) | B,4 B,4 | B,4 D4 | %46
 (_E8 | C8) | B,B,_EC FB,EC | BB,_EC BB,EC | B,8 ||!mf! !>!D6 .D.D | !>!D6 .D2 | !>!D6 .D.D | %54
 !>!D6 .D2 | !>!D6 .D.D | !>!D6 .D2 | !>!D4 !>!D4 | B,8 | D4 D4 | D4 D4 | _E4 E4 | E4 E4 | %63
 !>!D6 .D.D | !>!D6 .D2 | !>!D4 !>!D4 | B,8 | G4 F4 | D4 _E4 | D2 ^F,2 z2 F,2 | z2 A,4 B,2 | %71
 G,2!p! G,4 G,2 | B,2 B,4 B,2 | B,2 B,4 B,2 | (D4 C4) | D2 D4 D2 | D2 D4 D2 | D2 D4 D2 | %78
 D2 D2 DD D2 | D2 D4 D2 | D4 D4 | _D8 | _D8 | _D8 | _D8 | B,8 | B,8 |!mp! F8 | D4 C2!mf! FG | %89
 AG^FE D2 A,2 |!mp! ^F,3 F, G,2 B,2 | A,3 A, A,3 A, |!mf! DEDE ^FG F2 |!mf! !>!D6 .D.D | %94
 !>!D6 .D2 | D4 D4 | B,8 | G4 F4 | D4 D4 | B,2 B,2 B,2 B,2 | E,4 E,4 | _A,6 A,2 | B,6 B,2 | %103
 F,4 _A,4 | _D8 | B,4 _A,4 | A,4 B,2 B,2 | z2 E,E, E,2 z2 | z2 ^F,2 =B,4 | z4 D3 D | C2 G4 GA | %111
 B8- | B6 G2 | _A6 A2 | _A8 | z2 .G,2 E4 | .A,2 F4 FG | A3 A G2 E2 | F8 | z8 | z8 | %121
!mf! _A,4 z2 A,2 | _A,4 A,4 | C4 C2 C2- | C2 C4 C2 | G,2 G,2 G,2 G,2 | G,2 G,2 G,2 G,2 | %127
 z FED CG,F,E, | CFED CG,F,E, | CFED CG,F,E, | C z FE DC=B,A, | z2!f! .E,2!mf! G,4 | %132
 .D,2 A,4 A,=B, | C3 C =B,2 G,2 | A,8 | z8 |!f!!f! G,8 | F,6 _E,2 | _D,8- | D,8 | _D2 B,6- | %141
 B,6 B,2 | _A,8 |!ff! _D4 E4- | E8- | E8 | z2 .E2 (3.E2 .E2 .E2 | .E2!f! .C2 !>!C4- | %148
 C2 .C2 (3.C2 .C2 .C2 | .C2 z2 z4 | z8 |] %151
V:4
 z8 | z8 | z8 |[M:3/4] z6 |[M:4/4] z8 | z8 | z8 |[M:3/4] z6 |[M:4/4] z8 | z4 F,4- | F,8 | z8 | z8 | %13
 z8 | z8 | z8 | z8 | z8 | z8 | z8 | B,,6 B,,2 | B,,6 B,,2 | (D,4 C,4) | B,,6 B,,2 | C,4 C,2 B,,2 | %25
 C,6 G,,2 | _E,,3 G,, G,,3 A,, | A,,8- | A,,8 | B,,6 B,,2 | B,,6 B,,2 | (D,4 C,4) | B,,6 B,,2 | %33
 C,4 C,2 B,,2 | C,6 G,,2 | _E,,3 G,, G,,3 A,, | C,8- | C,8 | B,,2 B,,2 _E,2 E,2 | %39
 B,,2 B,,2 _E,2 E,2 | B,,2 B,,2 B,,2 B,,2 | _A,,6 B,,2 | B,,2 B,,2 _E,2 E,2 | B,,2 B,,2 _E,2 E,2 | %44
 B,,8- | B,,8 | B,,2 _E,,4 F,,2- | F,,2 F,,4 F,,2 | B,,4- B,,B,,F,F,, | B,,4- B,,B,,F,F,, | B,,8 || %51
!mf! !>!B,,4 !>!B,,4 | z2 .B,,.B,, B,,2 .F,,2 | !>!B,,4 !>!B,,4 | z2 .B,,.B,, B,,2 .F,,2 | %55
 !>!B,,4 !>!B,,4 | z2 .B,,.B,, B,,2 F,,2 | !>!G,,4 !>!F,,4 |!f! _E,,8 | G,,4 F,,4 | D,,4 G,,4 | %61
 _E,,4 E,,4 | A,,4 A,,4 |!mf! !>!B,,4 !>!B,,4 | z2 .B,,.B,, B,,2 .F,,2 | !>!G,,4 !>!F,,4 | %66
!f! _E,,8 |!mf! D,,4 D,4 | D,4 C,4 | B,,2 D,2 z2 D,2 | z2 C,4 D,2 | G,,2 z2 z4 |!p! G,2 G,4 G,2 | %73
 G,2 G,4 G,2 | F,4 F,4 | A,2 A,4 A,2 | A,2 A,4 A,2 | A,2 A,4 A,2 | A,2 A,2 A,A, A,2 | D,8- | %80
 D,2 D,4 D,2 | (B,8 | _A,8) | _A,8 | z2!mp! _E,,2 _E,2 E,,_D, | C,4!p! B,,4- | B,,4 z4 |!mp! C,8- | %88
 C,2!mf! C,4 C,2 | z4!mp! D,3 D, | D,3 D, D,2 D,2 | D,3 D, D,3 D, | z2 G,,4 A,,2 | %93
!mf! !>!B,,4 !>!B,,4 | z2 B,,2 B,,2 .B,,2 | G,,4 F,,4 |!f! _E,,8 | G,,4 F,,4 | D,,4 G,,4 | %99
 z2 _E,,2 E,,2 E,,2 | z2 A,,A,, A,,A,, A,,2 | _D,,6 D,,2 | _D,,6 D,,2 | B,,4 _A,,4 | ^F,,8 | %105
 B,,4 _A,,4 | A,,4 B,,2 B,,2 | z2 A,,A,, A,,2 z2 | z2 ^F,,2 =B,,4 | z8 | z8 | z4 _E,,4- | %112
 E,,6 _E,,2 | z4 _E,,4- | E,,4 _E,,2 E,,2 | C,6 C,2 | z2 C,4 C,2 | z2!f! !>!A,,2 z2 !>!G,,2 | %118
 z2 .F,,.F,, .F,,.F,, .F,,2 | .F,,2 z2 z4 | z8 |!mf! _A,,2 A,,2 A,,2 A,,2 | _A,,2 A,,2 A,,2 =B,,2 | %123
 C,2 C,2 C,2 C,2 | C,2 C,2 C,2 D,2 | E,2 E,2 E,2 E,2 | E,2 E,2 C,2 C,2 | C,8- | C,8- | C,8- | C,8 | %131
!f! .C,2 .C,2 z4 | z8 | z8 |!mf! F,3 F, E,4 | _G,,8 |!mp! _G,,8- | G,,8 | _G,,8- | G,,8 | _G,,8- | %141
 G,,8 | _G,,8 |!ff! z4 .C,2 .C,2 | .C,2 .C,2 (3.C,2 .C,2 .C,2 | C,4 C,4 | %146
 .C,2 .C,2 (3.C,2 .C,2 .C,2 | .C,2!f! .C,2 !>!C,4- | C,2 .C,2 (3.C,2 .C,2 .C,2 | %149
 .C,2 .C,,2 (3.C,,2 .C,,2 .C,,2 | .C,,2 z2 z4 |] %151

